packages/sources/assets/src/assets/cb.svg

<svg width="58" height="40" viewBox="0 0 58 40" fill="none" xmlns="http://www.w3.org/2000/svg">
<rect x="0.5" y="0.5" width="57" height="39" rx="2.5" fill="url(#paint0_linear_545_4267)" stroke="#F1F1F1"/>
<path fill-rule="evenodd" clip-rule="evenodd" d="M21.825 19.4075H29.6782C29.6082 17.71 29.2127 15.9599 28.0131 14.8358C26.5842 13.4967 24.0813 13 21.8449 13C19.5172 13 16.943 13.5448 15.5065 14.9815C14.2678 16.2192 14 18.2105 14 19.9996C14 21.8737 14.5239 24.0536 15.8677 25.3093C17.2966 26.6453 19.612 27 21.8449 27C24.0141 27 26.3638 26.5995 27.7844 25.3311C29.201 24.0641 29.6906 21.9301 29.6906 19.9996V19.9906H21.825V19.4075ZM30.2053 19.9909V26.687H41.1298V26.6779C42.7283 26.5908 44 25.1495 44 23.3799C44 21.6095 42.7283 20.0758 41.1298 19.9879V19.9909H30.2053ZM41.0054 13.2804C42.5634 13.2804 43.8 14.6322 43.8 16.338C43.8 17.9528 42.6643 19.2716 41.2196 19.4076H30.2051V13.2706H40.6607C40.725 13.2627 40.8 13.2683 40.8733 13.2737C40.919 13.277 40.964 13.2804 41.0054 13.2804Z" fill="#FEFEFE"/>
<defs>
<linearGradient id="paint0_linear_545_4267" x1="15.7319" y1="-5.06532" x2="1.63672" y2="38.2044" gradientUnits="userSpaceOnUse">
<stop stop-color="#222E72"/>
<stop offset="0.591647" stop-color="#40CBFF"/>
<stop offset="1" stop-color="#3CB792"/>
</linearGradient>
</defs>
</svg>

<svg width="58" height="40" fill="none" xmlns="http://www.w3.org/2000/svg"><rect x=".5" y=".5" width="57" height="39" rx="2.5" fill="url(#a)" stroke="#F1F1F1"/><path fill-rule="evenodd" clip-rule="evenodd" d="M21.825 19.407h7.853c-.07-1.697-.465-3.447-1.665-4.571C26.584 13.496 24.081 13 21.845 13c-2.328 0-4.902.545-6.338 1.982C14.267 16.218 14 18.21 14 20c0 1.874.524 4.054 1.868 5.31 1.429 1.335 3.744 1.69 5.977 1.69 2.17 0 4.519-.4 5.94-1.669 1.416-1.267 1.906-3.4 1.906-5.331v-.01h-7.866v-.582Zm8.38.584v6.696H41.13v-.01C42.728 26.592 44 25.15 44 23.38c0-1.77-1.272-3.304-2.87-3.392v.003H30.205Zm10.8-6.71c1.558 0 2.795 1.351 2.795 3.057 0 1.615-1.136 2.934-2.58 3.07H30.205V13.27h10.456c.064-.008.139-.003.212.003.046.003.091.006.132.006Z" fill="#FEFEFE"/><defs><linearGradient id="a" x1="15.732" y1="-5.065" x2="1.637" y2="38.204" gradientUnits="userSpaceOnUse"><stop stop-color="#222E72"/><stop offset=".592" stop-color="#40CBFF"/><stop offset="1" stop-color="#3CB792"/></linearGradient></defs></svg>
